Origami/48x48/apps/applications-haskell.svg

<svg width="48" height="48" version="1" xmlns="http://www.w3.org/2000/svg">
 <rect x="4" y="5" width="40" height="40" rx="2" ry="2" style="opacity:.2"/>
 <rect x="4" y="4" width="40" height="40" rx="2" ry="2" style="fill:#cccccc"/>
 <path d="m6 4c-1.108 0-2 0.892-2 2v1c0-1.108 0.892-2 2-2h36c1.108 0 2 0.892 2 2v-1c0-1.108-0.892-2-2-2h-36z" style="fill:#ffffff;opacity:.2"/>
 <path d="m11 13 6.5 12-6.5 12h4l6.5-12-6.5-12zm7 0 6.5 12-6.5 12h4l4.5-8.301 4.5 8.301h4l-13-24zm11.334 8 1.625 3h6.041v-3zm2.707 5 1.625 3h3.334v-3z" style="opacity:.1"/>
 <path d="m18 12 6.5 12-6.5 12h4l4.5-8.301 4.5 8.301h4l-13-24z" style="fill:#5f5088"/>
 <path d="m11 12 6.5 12-6.5 12h4l6.5-12-6.5-12zm18.334 8 1.625 3h6.041v-3zm2.707 5 1.625 3h3.334v-3z" style="fill:#8b82a4"/>
</svg>

<svg xmlns="http://www.w3.org/2000/svg" width="48" height="48" version="1">
 <rect style="opacity:0.2" width="40" height="40" x="4" y="5" rx="2" ry="2"/>
 <rect style="fill:#cccccc" width="40" height="40" x="4" y="4" rx="2" ry="2"/>
 <path style="opacity:0.2;fill:#ffffff" d="M 6 4 C 4.892 4 4 4.892 4 6 L 4 7 C 4 5.892 4.892 5 6 5 L 42 5 C 43.108 5 44 5.892 44 7 L 44 6 C 44 4.892 43.108 4 42 4 L 6 4 z"/>
 <path style="opacity:0.1" d="M 11,13 17.5,25 11,37 H 15 L 21.5,25 15,13 Z M 18,13 24.5,25 18,37 H 22 L 26.5,28.699 31,37 H 35 L 22,13 Z M 29.334,21 30.959,24 H 37 V 21 Z M 32.041,26 33.666,29 H 37 V 26 Z"/>
 <path style="fill:#5f5088" d="M 18,12 24.5,24 18,36 H 22 L 26.5,27.699 31,36 H 35 L 22,12 Z"/>
 <path style="fill:#8b82a4" d="M 11,12 17.5,24 11,36 H 15 L 21.5,24 15,12 Z M 29.334,20 30.959,23 H 37 V 20 Z M 32.041,25 33.666,28 H 37 V 25 Z"/>
</svg>
